polaris-icons/icons/new-icons/ReplayMinor.svg

<svg width="20" height="20" viewBox="0 0 20 20" fill="none" xmlns="http://www.w3.org/2000/svg">
<path d="M11.5303 3.46967C11.2374 3.17678 10.7626 3.17678 10.4697 3.46967C10.1768 3.76256 10.1768 4.23744 10.4697 4.53033L12.1893 6.25H9.5C6.73858 6.25 4.5 8.48858 4.5 11.25C4.5 14.0114 6.73858 16.25 9.5 16.25H10C12.6234 16.25 14.75 14.1234 14.75 11.5C14.75 11.0858 14.4142 10.75 14 10.75C13.5858 10.75 13.25 11.0858 13.25 11.5C13.25 13.2949 11.7949 14.75 10 14.75H9.5C7.567 14.75 6 13.183 6 11.25C6 9.317 7.567 7.75 9.5 7.75H12.1893L10.4697 9.46967C10.1768 9.76256 10.1768 10.2374 10.4697 10.5303C10.7626 10.8232 11.2374 10.8232 11.5303 10.5303L14.5303 7.53033C14.8232 7.23744 14.8232 6.76256 14.5303 6.46967L11.5303 3.46967Z" fill="#4A4A4A"/>
</svg>

<svg viewBox="0 0 20 20" xmlns="http://www.w3.org/2000/svg"><path d="M11.53 3.47a.75.75 0 1 0-1.06 1.06l1.72 1.72h-2.69a5 5 0 0 0 0 10h.5a4.75 4.75 0 0 0 4.75-4.75.75.75 0 0 0-1.5 0 3.25 3.25 0 0 1-3.25 3.25h-.5a3.5 3.5 0 1 1 0-7h2.69l-1.72 1.72a.75.75 0 1 0 1.06 1.06l3-3a.75.75 0 0 0 0-1.06l-3-3Z" fill="#5C5F62"/></svg>
